X:16
T:Sweet-ish
C:Corwin Zekley
L:1/8
M:4/4
K:Gmin
"Gm" d4 c4 | dcBA G2 dc | BA G2 G3 A | Bdfg"C" =e4 |$"Gm" d4 c4 | dcBA G2 GA |"Bb" B2 f=e dgfe | %7
"A" agf=e"D" d4 :|$"Gm" GABG A2 AB | cABd"C" f2 =e2 |"Gm" GABG A2 AB |"Dm" AGFD"Gm" G4 |$ %12
"Gm" GABG A2 AB | cABd"C" f2 =e2 |"Gm" gafg"C" =edcB |"Dm" dcBA"Gm" G3 F |$"Gm" GABG A2 AB | %17
 cABd"C" f2 =e2 |"Gm" GABG A2 AB |"F" AGFD"Gm" GABc |$"Eb" d4 c4 |"C" dcBA G2"Eb" dc | BA G2 G3 D | %23
"Dm" FDCB,"Gm" G,4 |] %24

